X: 093
T: Mrs Samuel Anderson's Strathspey
R: strathspey
Q: "Slow"
B: William Shepherd "1st Collection" 1793 p.9 #3
F: http://imslp.org/wiki/File:PMLP73094-Shepherd_Collections_HMT.pdf
C: William Shepherd (17??-1812)
Z: 2012 John Chambers <jc:trillian.mit.edu>
M: C
L: 1/8
K: Em
B, |\
EF {EF}GE TFd {G}FE/D/ | B,EGE eBge |\
df^cd Fd DEFG | BB, B/A/G/F GTE E :|
|: B |\
ef {a}gf/e/ dDFd | EB,GE BGeB |\
faBg Fd D/E/F/G/ | BB/c/ B/A/G/F/ GTE E :|
